X:1
T:Title
%%score { 1 | ( 2 3 ) }
L:1/8
Q:1/4=92
M:6/8
K:Db
V:1 treble nm="Grand Piano"
V:2 bass 
V:3 bass 
V:1
 [Fd]>[FA][FA] [FA][EG]F | B2 B A2 F | [EG]3 [CA]3 | F6 | B>BA [GA][GB][Gc] | [Fd]2 [DF] [EG]2 F | %6
w: Chas.~Edw.~Prior * * * * *||||||
 E3 E3 | [CA]6 | [FA]>FF F[EG][FA] | [EG]2 [DG] [CG]3 | [CB]>[CE][CE] [CE][DF][EG] | %11
w: |||||
 [DF]2 [DF] [FA]2 [Fd] | [Gd]3 [DGB]3 | [DFA]3- [DFA]2 [DF] | .[DEG]3 .[B,EG]3 | [A,DF]6 |] %16
w: |||||
V:2
 [D,A,]>[D,D][D,D] [D,D][D,A,][D,A,D] | [G,D]2 [G,D] [F,A,D]2 [D,A,D] | [C,A,]3 [A,,A,]3 | %3
 [D,A,D]6 | [G,D]>[G,D][F,A,D] [E,A,][E,A,][E,A,] | [D,A,]2 [D,A,] [C,A,]2 [D,A,D] | %6
 [E,A,C]3 [E,=G,D]3 | [A,,A,]6 | [D,A,]>[D,A,D][D,A,D] [D,A,D][D,A,][D,A,] | %9
 [A,,A,]2 [A,,A,] [A,,A,]3 | [A,,G,]>[A,,G,][A,,E,] [A,,A,][A,,A,][A,,A,] | %11
 [D,A,]2 [D,A,] [D,D]2 [D,A,] | [G,B,]3 G,3 | D,3- D,2 D, | z2 C z2 A, | D,6 |] %16
V:3
 x6 | x6 | x6 | x6 | x6 | x6 | x6 | x6 | x6 | x6 | x6 | x6 | x6 | x6 | A,,3 A,,3 | x6 |] %16

